!!!!SEGMENT: pl-kk--kk-i-382--041-002_singenberger-johann-baptist--msza-na-3-glosy-gloria.krn
!!!cenid: 18xx:1529
!!!COM: Singenberger, Johann Baptist
!!!COM-rism: pe30008527
!!!CDT: 1848-1924
!!!CNT:
!!!OTL: Msza na 3 głosy – Gloria
!!!PDT:
!!!AGN: Sacred; Mass
!!!SMS-siglum: PL-Kk
!!!SMS-shelfmark: Kk.I.382
!!!NIFC-rismID: 1001140188
!!!URL-scan: http://repozytorium.nifc.pl/skany/pl-kk-nut--i-382
!!!ONB-nifc: UWAGA: obsada: S (T 1) (skan 0033), T 2 (skan 0110), B 2 (skan 0254). Osobne części Mszy: Kyrie, Gloria, Sanctus, Benedictus, Agnus
!!!SMS-variant:
!!!SMS-altvar:
**kern	**text	**kern	**text	**kern	**text
*part3	*part3	*part2	*part2	*part1	*part1
*staff3	*staff3	*staff2	*staff2	*staff1	*staff1
*I"Basso II	*	*I"Tenore II	*	*I"Soprano vel Tenore I.	*
*I'B 2	*	*I'T 2	*	*I'S (T 1)	*
*clefF4	*	*clefG2	*	*clefG2	*
*k[b-]	*	*k[b-]	*	*k[b-]	*
*M4/4	*	*M4/4	*	*M4/4	*
*met(c)	*	*met(c)	*	*met(c)	*
=1	=1	=1	=1	=1	=1
*2\right	*	*	*	*	*
!LO:TX:a:t=P:problem:w źródle ta adnotacja zapisana przed pierwszym taktem, na pięciolinii	!	!LO:TX:a:t=P:problem:w źródle ta adnotacja zapisana przed pierwszym taktem, na pięciolinii	!	!LO:TX:a:t=P:problem:w źródle ta adnotacja zapisana przed pierwszym taktem, na pięciolinii	!
!LO:TX:a:i:t=Gloria	!	!LO:TX:a:i:t=Gloria	!	!LO:TX:a:i:t=Gloria	!
!LO:TX:t=P:problem:all\right:global	!	!	!	!	!
4F\	Et	4f/	Et	4f/	Et
4C/	in	4e/	in	4g/	in
4F\	ter-	4f/	ter-	4a/	ter-
4A\	-ra	4f/	-ra	4cc\	-ra
=2	=2	=2	=2	=2	=2
8G\	pax	8d/	pax	8b-\	pax
8G\	ho-	8e/	ho-	8b-\	ho-
8F\	-mi-	8f/	-mi-	8a/	-mi-
8F\	-ni-	8f/	-ni-	8a/	-ni-
!LO:TX:t=P:problem:2/left:global	!	!LO:TX:t=P:problem:2/left:global	!	!LO:TX:t=P:problem:2/left:global	!
2c\	-bus	2e/	-bus	2g/	-bus
=3	=3	=3	=3	=3	=3
4F\	bo-	4f/	bo-	4a/	bo-
4B-\	-nae	4d/	-nae	4f/	-nae
4G\	vo-	4e/	vo-	4b-\	vo-
4F\	-lun-	4f/	-lun-	4a/	-lun-
=4	=4	=4	=4	=4	=4
2c\	-ta-	2f/	-ta-	2a/	-ta-
4C/	-tis	4e/	-tis	4g/	-tis
4C/	lau-	4e/	lau-	4g/	lau-
!LO:LB:g=original	!	!LO:LB:g=original	!	!	!
=5	=5	=5	=5	=5	=5
4F\	-da-	4f\	-da-	4a/	-da-
4D\	-mus	4f/	-mus	4bn\	-mus
!	!	!	!	!LO:LB:g=original	!
4A\	te	4e/	te	4cc\	te
8A\	be-	8e/	be-	8cc\	be-
8A\	-ne-	8e/	-ne-	8cc\	-ne-
=6	=6	=6	=6	=6	=6
4Bn\	-di-	4g/	-di-	4dd\	-di-
8G\	-ci-	8g/	-ci-	8dd\	-ci-
8G\	-mus	8g/	-mus	8dd\	-mus
4c\	te	4g/	te	4ee\	te
[>4F\	a-	[<4a/	a-	[>4ff\	a-
=7	=7	=7	=7	=7	=7
4F\]	.	4a/]	.	4ff\]	.
4F\	-do-	4a/	-do-	4cc\	-do-
4BB-/	-ra-	4.b-\	-ra-	4.dd\	-ra-
4D\	-mus	.	.	.	.
.	.	8b-\	-mus	8dd\	-mus
=8	=8	=8	=8	=8	=8
4F\	te	4a/	te	4cc\	te
4E\	glo-	4g/	glo-	4cc\	glo-
4BBn/	-ri-	4g/	-ri-	4dd\	-ri-
4C/	-fi-	4g/	-fi-	4ee\	-fi-
=9	=9	=9	=9	=9	=9
4F\	-ca-	4a/	-ca-	4.dd\	-ca-
4G\	-mus	8g/L	-mus	.	.
.	.	8f/J	.	8dd\	-mus
2C/	te	2e/	te	2cc\	te
!LO:LB:g=original	!	!LO:LB:g=original	!	!	!
=10||	=10||	=10||	=10||	=10||	=10||
4E\	Cum	4c/	Cum	4cc\	Cum
!	!	!	!	!LO:LB:g=original	!
=11	=11	=11	=11	=11	=11
4D\	san-	4d/	San-	4f/	San-
4C/	-cto	4e/	-cto	4g/	-cto
4F\	spi-	4f/	spi-	4a/	spi-
4G\	-ri-	4e/	-ri-	4g/	-ri-
=12	=12	=12	=12	=12	=12
4A\	-tu	4f/	-tu	4f/	-tu
4B-\	in	4d/	in	4f/	in
4G\	glo-	4e/	glo-	4g/	glo-
8F\	-ri-	8f/	-ri-	8a/	-ri-
8F\	-a	8f/	-a	8a/	-a
=13	=13	=13	=13	=13	=13
(>4D\	De-	2f/	De-	(>4b-\	De-
4F\)	.	.	.	4a/)	.
4C/	.	4e/	.	4g/	.
4AA/	-i	4c/	-i	4cc\	-i
=14	=14	=14	=14	=14	=14
2.BB-/	pa-	2.d/	Pa-	(>4cc\	Pa-
.	.	.	.	4b-\	.
.	.	.	.	4a/)	.
4BB-/	-tris	4d/	-tris	4g/	-tris
=15	=15	=15	=15	=15	=15
(<8AA/L	a-	(>2.f/	a-	(>2a/	a-
8GG/	.	.	.	.	.
8AA/	.	.	.	.	.
8BB-/J)	.	.	.	.	.
2C/	.	.	.	2g/)	.
.	.	4e/)	.	.	.
=16	=16	=16	=16	=16	=16
2F\	-men	2f/	-men	2f/	-men
2r	.	2r	.	2r	.
==	==	==	==	==	==
*-	*-	*-	*-	*-	*-
!!!system-decoration: [(s1,s2,s3)]
!!!RDF**kern: > = above
!!!RDF**kern: < = below
!!!EED: Antoni Szymański
!!!EST: 2021-02-08
!!!ENC: Andrzej Gręziak
!!!END: 2021-01-30
